X:1
T:Title
%%score { ( 1 3 ) | 2 }
L:1/8
M:4/4
K:C
V:1 treble nm="Grand Piano"
V:3 treble 
V:2 bass 
V:1
 z4 z2[Q:1/4=100] [EG]2 | [CE]2 [DF]2 [EG]2 [Ec]2 | [Fc]3 [FB] [FB]2 z B, | G2 [Gc]2 [Gd]2 [Ge]2 | %4
[M:3/4] e3 d d2 |[M:1/4] d2 |[M:4/4] ^F2 G2 A2 c2 | [^FB]2 [_EA]2 [=EG]2 [GB]2 | %8
 [Ge]3 [Ec] [DEB]2 [CEA]2 |[M:3/4] [Dd]2 [A,C^F]2 [G,B,G]2 |[M:1/4] G2 |[M:4/4] d2 A2 B2 c2 | %12
 e3 d d2 e2 | c2 B2 A2 [^FB]2 |[M:3/4] ^G2 ^F2 E2 |[M:1/4] E2 |[M:4/4] c2 c2 c2 c2 | %17
 f2 [Af]2 [Ge]2 [Ge]2 | e2 d2 c2 A2 | c4 d4 |[M:3/4] [Ec]6 |] %21
V:2
 z4 z2 [C,G,]2 | [C,G,]2 [C,G,]2 [C,G,]2 [C,G,]2 | [D,G,]3 [D,G,] [D,G,]2 .[D,A,]2 | %3
 [E,C]2 [E,G,]2 [D,B,]2 [C,C]2 |[M:3/4][K:treble] [G,CG]3 [G,B,G] [G,B,G]2 |[M:1/4] [B,D]2 | %6
[M:4/4] [A,CD]2[K:bass] [G,B,D]2 [^F,A,D]2 [E,G,E]2 | [_E,^F,]2 [B,,B,]2 [=E,B,]2 [E,B,]2 | %8
 [C,C]3 C, C,2 C,2 |[M:3/4] [D,B,]2 D,2 G,,2 |[M:1/4] G,2 | %11
[M:4/4][K:treble] [G,B,F]2 [G,CF]2 [G,DF]2 [G,A,F]2 | [G,CF]3 [G,B,F] [G,B,F]2[K:bass] [^G,B,E]2 | %13
 [A,E]2 [A,DE]2 [A,CE]2 [_E,B,]2 |[M:3/4] [E,B,E]2 [E,A,_E]2 [E,^G,]2 |[M:1/4] E,2 | %16
[M:4/4] [A,CE]2 [A,CE]2 [G,_B,E]2 [G,B,E]2 | [F,A,F]2 [F,C]2 [C,C]2 [C,C]2 | %18
 [G,B,F]2 [G,B,F]2[K:bass] [A,CE]2 [^F,CD]2 | [G,CE]4 [G,B,F]4 |[M:3/4][K:bass] [C,C]6 |] %21
V:3
 x8 | x8 | z4 z2 [FA]2 | x8 |[M:3/4] x6 |[M:1/4] x2 |[M:4/4] x8 | x8 | x8 |[M:3/4] x6 |[M:1/4] x2 | %11
[M:4/4] x8 | x8 | x8 |[M:3/4] x6 |[M:1/4] x2 |[M:4/4] x8 | x8 | x8 | x8 |[M:3/4] x6 |] %21

